X:2518
L:1/8
M:6/8
K:Amix
 g/f/ | e2 A ABA | e2 A Bcd | e2 A ABA | dBG Bcd | e2 A g2 A | e2 A Bcd | ede g2 e | dBG GBd :: 
 g3 f<gf | g2 e dBd | g3 f2 e | dBG GBd | g2 e a2 f | g2 e dBd | gfg f2 e | dBG GBd :|

